src/images/crypto-icon-svg/act.svg

<svg xmlns="http://www.w3.org/2000/svg" width="32" height="32" viewBox="0 0 32 32">
  <g fill="none" fill-rule="evenodd">
    <circle cx="16" cy="16" r="16" fill="#767DFF" fill-rule="nonzero"/>
    <path fill="#FFF" d="M13.7696672,6.5 L18.2303328,6.5 C18.5450175,6.5 18.8351623,6.66997114 18.9890446,6.94446476 L25.8947974,19.2628744 C26.0428893,19.5270392 26.0429192,19.8492152 25.8948764,20.1134075 L23.6859449,24.0553942 C23.5320853,24.3299669 23.2418967,24.5 22.927154,24.5 L9.07284599,24.5 C8.75810335,24.5 8.46791469,24.3299669 8.31405514,24.0553942 L6.10512356,20.1134075 C5.95708078,19.8492152 5.95711073,19.5270392 6.1052026,19.2628744 L13.0109554,6.94446476 C13.1648377,6.66997114 13.4549825,6.5 13.7696672,6.5 Z M16,11.4009901 L11.3465603,19.6881188 L20.6534397,19.6881188 L16,11.4009901 Z"/>
  </g>
</svg>

<svg xmlns="http://www.w3.org/2000/svg" width="32" height="32"><g fill="none" fill-rule="evenodd"><circle cx="16" cy="16" r="16" fill="#767DFF" fill-rule="nonzero"/><path fill="#FFF" d="M13.77 6.5h4.46a.87.87 0 0 1 .759.444l6.906 12.319a.87.87 0 0 1 0 .85l-2.21 3.942a.87.87 0 0 1-.758.445H9.073a.87.87 0 0 1-.759-.445l-2.209-3.942a.87.87 0 0 1 0-.85l6.906-12.319a.87.87 0 0 1 .759-.444zM16 11.401l-4.653 8.287h9.306L16 11.401z"/></g></svg>
